X:1096
T:Trindskallar är vi allihopa
R:Polska
Z:Klas Krantz, 2006
O:-
S:efter -
L:1/8
M:4/4
K:G
"G"d2d>e d>c | c>BG2B2 | "D7"d>cD2F>A |1 "G"c>B G>A B>c :|2 "G"c>BG2z2 ||
|:"D"D2F>F A>A | d>ef2d2 | "A7"e>f g>e ^c>e |1 "D"e>d f>d A>F :|2 "D"e>dd2z2 ||
|:"G"d2d>e d>c | c>BG2B2 | "D7"d>cD2F>A |1 "G"c>B G>A B>c :|2 "G"c>BG2z2 |]

(:musicend:)

Denna låt har lite [[!lite information]] - varifrån kommer den och vem är den efter? Troligen finns den i [[kategori/Svenska Låtar]].
(:music:)
